images/icons/spotify-alt.svg

<svg fill="none" height="24" viewBox="0 0 24 24" width="24" xmlns="http://www.w3.org/2000/svg" xmlns:xlink="http://www.w3.org/1999/xlink"><clipPath id="a"><path d="m0 0h24v24h-24z"/></clipPath><g clip-path="url(#a)"><path d="m12 .375c-6.62419 0-12 5.20781-12 11.625 0 6.4172 5.37581 11.625 12 11.625 6.6242 0 12-5.2078 12-11.625 0-6.41719-5.3758-11.625-12-11.625zm4.8726 17.1047c-.2032 0-.3291-.061-.5178-.1688-3.0193-1.7625-6.53222-1.8375-10.00157-1.1484-.18871.0469-.43549.1219-.57581.1219-.46936 0-.76452-.361-.76452-.7406 0-.4829.29516-.7126.65807-.7876 3.9629-.8484 8.01293-.7734 11.46773 1.2282.2952.1828.4694.3468.4694.7734s-.3436.7219-.7355.7219zm1.3016-3.075c-.2516 0-.421-.1078-.5952-.1969-3.0242-1.7344-7.5338-2.4328-11.54513-1.3781-.23226.0609-.35806.1219-.57581.1219-.51774 0-.93871-.4079-.93871-.9094 0-.5016.25162-.8344.75-.9703 1.34517-.3657 2.71936-.6375 4.73225-.6375 3.1403 0 6.1742.7547 8.5645 2.1328.392.225.5468.5156.5468.9234-.0048.5063-.4113.9141-.9387.9141zm1.5-3.5719c-.2516 0-.4065-.0609-.6242-.1828-3.4452-1.99219-9.60484-2.47031-13.59194-1.39219-.17419.04688-.39193.12188-.62419.12188-.63871 0-1.12742-.48281-1.12742-1.10625 0-.6375.40645-.99844.84194-1.12031 1.70322-.48282 3.60967-.71251 5.68551-.71251 3.5322 0 7.2338.7125 9.9387 2.24063.3774.21094.6242.50156.6242 1.05938 0 .63747-.5323 1.09217-1.1226 1.09217z" fill="#1db954"/></g></svg>

<svg width="24" height="24" viewBox="0 0 24 24" fill="none" xmlns="http://www.w3.org/2000/svg">
<g clip-path="url(#clip0_1432_8764)">
<path d="M12 0.375C5.37581 0.375 0 5.58281 0 12C0 18.4172 5.37581 23.625 12 23.625C18.6242 23.625 24 18.4172 24 12C24 5.58281 18.6242 0.375 12 0.375ZM16.8726 17.4797C16.6694 17.4797 16.5435 17.4187 16.3548 17.3109C13.3355 15.5484 9.82258 15.4734 6.35323 16.1625C6.16452 16.2094 5.91774 16.2844 5.77742 16.2844C5.30806 16.2844 5.0129 15.9234 5.0129 15.5438C5.0129 15.0609 5.30806 14.8312 5.67097 14.7562C9.63387 13.9078 13.6839 13.9828 17.1387 15.9844C17.4339 16.1672 17.6081 16.3312 17.6081 16.7578C17.6081 17.1844 17.2645 17.4797 16.8726 17.4797V17.4797ZM18.1742 14.4047C17.9226 14.4047 17.7532 14.2969 17.579 14.2078C14.5548 12.4734 10.0452 11.775 6.03387 12.8297C5.80161 12.8906 5.67581 12.9516 5.45806 12.9516C4.94032 12.9516 4.51935 12.5437 4.51935 12.0422C4.51935 11.5406 4.77097 11.2078 5.26935 11.0719C6.61452 10.7062 7.98871 10.4344 10.0016 10.4344C13.1419 10.4344 16.1758 11.1891 18.5661 12.5672C18.9581 12.7922 19.1129 13.0828 19.1129 13.4906C19.1081 13.9969 18.7016 14.4047 18.1742 14.4047V14.4047ZM19.6742 10.8328C19.4226 10.8328 19.2677 10.7719 19.05 10.65C15.6048 8.65781 9.44516 8.17969 5.45806 9.25781C5.28387 9.30469 5.06613 9.37969 4.83387 9.37969C4.19516 9.37969 3.70645 8.89688 3.70645 8.27344C3.70645 7.63594 4.1129 7.275 4.54839 7.15313C6.25161 6.67031 8.15806 6.44062 10.2339 6.44062C13.7661 6.44062 17.4677 7.15312 20.1726 8.68125C20.55 8.89219 20.7968 9.18281 20.7968 9.74063C20.7968 10.3781 20.2645 10.8328 19.6742 10.8328V10.8328Z" fill="#1DB954"/>
</g>
<defs>
<clipPath id="clip0_1432_8764">
<rect width="24" height="24" fill="white"/>
</clipPath>
</defs>
</svg>
